!!!COM:	la Rue, Pierre de
!!!CDT:	~1452///-1518/11/20
!!!OTL:	Kyrie In festo pasche
!!!AGN:	Mass section; Kyrie
!!!SCT:	Rue1032
!!!SCA:	Rue1032
!!!voices:	4
**kern	**kern	**kern	**kern
*staff4	*staff3	*staff2	*staff1
*Ivox	*Ivox	*Ivox	*Ivox
*I"Bassus	*I"Tenor	*I"Contra	*I"Discantus
*I'B	*I'T	*I'C	*I'D
*>[A,B,C,D]	*>[A,B,C,D]	*>[A,B,C,D]	*>[A,B,C,D]
*>A	*>A	*>A	*>A
*clefF4	*clefGv2	*clefGv2	*clefG2
*k[]	*k[]	*k[]	*k[]
*M3/1	*M3/1	*M3/1	*M3/1
*met(O)	*met(O)	*met(O)	*met(O)
!!section: Kyrie I
!!!OMD: Kyrie I
=1-	=1-	=1-	=1-
1r	0.G	2.G/	0.r
.	.	4A/	.
2r	.	2B\	.
2.C/	.	2.c\	.
4D\	.	4B\	.
2E\	.	2G/	.
=2	=2	=2	=2
1F	0A	2d\	1r
.	.	2.f\	.
2r	.	.	1r
.	.	4e\	.
2.F\	.	2c\	.
.	1c	2f\	2r
4E\	.	.	.
2C/	.	2e\	[2g/
=3	=3	=3	=3
1G	1B	1d	4g/]
.	.	.	4a/
.	.	.	2b\
1r	2A/	1c	2.cc\
.	2.c\	.	.
.	.	.	4b\
1r	.	2r	2g/
.	4B\	.	.
.	2G/	2g\	[2dd\
=4	=4	=4	=4
2.D\	0.d	4f\	4dd\]
.	.	4e\	4cc\
.	.	1f	1a
4E\	.	.	.
2F\	.	.	.
2.G\	.	2d\	1b
.	.	2g\	.
4F\	.	.	.
2D\	.	2f\	[2a/
=5	=5	=5	=5
1A	1c	0e	2a/]
.	.	.	4g#i/
.	.	.	4f#i/
1E	0B	.	1g#i
1E	.	1e	2.g#i/
.	.	.	4a/
=6	=6	=6	=6
1r	0A	2r	0.a
.	.	2f\	.
1r	.	4e\	.
.	.	4c\	.
.	.	2e\	.
2r	1r	2d\	.
2C/	.	2c\	.
=7	=7	=7	=7
4BB/	1r	1d	0.r
4GG/	.	.	.
2BB/	.	.	.
2AA/	1r	2c\	.
1GG	.	2B\	.
.	2r	1A	.
2FF#i/	2c\	.	.
=8	=8	=8	=8
2GG/	4B\	2G/	1r
.	4G/	.	.
2.D\	2B\	2D/	.
.	2A/	1d	1r
4C/	.	.	.
2BB/	1G	.	.
1AA	.	2c\	2r
.	2F#i/	2A/	2cc\
=9	=9	=9	=9
1GG	2G/	2B\	4b\
.	.	.	4g/
.	2.d\	2G/	2b\
1r	.	0d	2a/
.	4c\	.	.
.	2B\	.	1g
1D	1A	.	.
.	.	.	2f#i/
=10	=10	=10	=10
[0.E	2r	2c\	1g
.	2.G/	2B\	.
.	.	2c\	2r
.	4A/	.	.
.	2B\	2.e\	2.g/
.	2c\	.	.
.	.	4d\	4a/
.	[2G/	2B\	2b\
=11	=11	=11	=11
1E]	2G/]	1e	2cc\
.	2.c\	.	2g/
0F	.	1c	2r
.	4B\	.	.
.	4A/	.	2.cc\
.	4G/	.	.
.	2A/	[1f	.
.	.	.	4b\
.	[2d\	.	4a/
.	.	.	4g/
=12	=12	=12	=12
1F	4d\]	1f]	2a/
.	4c\	.	.
.	2A/	.	2.dd\
1G	2B\	0d	.
.	.	.	4cc\
.	2G/	.	2b\
2F\	2A/	.	2a/
2G\	2B\	.	[2g/
=13	=13	=13	=13
1E	1G	2r	2g/]
.	.	2e\	2g/
2r	2r	2d\	2f/
2E\	2G/	2e\	2g/
2D\	2F/	2f\	2a/
2E\	2G/	2e\	2g/
=14	=14	=14	=14
2F\	2A/	2d\	2r
2E\	2G/	2e\	2g/
2D\	2r	2f\	2f/
2E\	2G/	2e\	2g/
2F\	2F/	2r	2a/
2E\	[2G/	2e\	2b\
=15	=15	=15	=15
2r	4G/]	2d\	1g
.	4A/	.	.
2E\	4B\	2e\	.
.	4c\	.	.
2D\	2d\	2A/	2r
2E\	2G/	2e\	2g/
2F\	2r	2r	2a/
2G\	[2G/	[2e\	[2b\
=16	=16	=16	=16
1E	4G/]	4e\]	2b\]
.	8A/L	4d\	.
.	8B/J	.	.
.	1c	2e\	2g/
2F\	.	2A/	2a/
2G\	2B\	2G/	2b\
1C	[1c	2A/	2.e/
.	.	2G/	.
.	.	.	4f/
=17	=17	=17	=17
2r	1c]	1E	4g/
.	.	.	4a/
2.C/	.	.	1g
.	1c	1G	.
4D\	.	.	.
2E\	.	.	1e
2F\	1r	2A/	.
2G\	.	4B\	2d/
.	.	4A/	.
=18	=18	=18	=18
4C/	1c	4G/	2e/
4D\	.	4F/	.
4E\	.	1E	2.g/
4F\	.	.	.
2G\	1B	.	.
.	.	.	4a/
1E	.	2G/	2b\
.	1A	1F	2cc\
2D\	.	.	2dd\
=19	=19	=19	=19
[0.El	2.c\	1E	[0.gl
.	4B\	.	.
.	0B	0e	.
=20	=20	=20	=20
0.E]	0.Bl	0.el	0.g]
!!LO:LB:i:g=z
=21||	=21||	=21||	=21||
*>B	*>B	*>B	*>B
*clefF4	*clefGv2	*clefGv2	*clefG2
*k[]	*k[]	*k[]	*k[]
*M2/1	*M2/1	*M2/1	*M2/1
*met(C)	*met(C)	*met(C)	*met(C)
!!section: Christe
!!!OMD: Christe
0r	1c	0r	0r
.	2.d\	.	.
.	4c\	.	.
=22	=22	=22	=22
1F	2A/	0r	0r
.	2c\	.	.
2.G\	1B	.	.
4F\	.	.	.
=23	=23	=23	=23
2D\	2A/	1f	0r
2F\	1d	.	.
1E	.	1g	.
.	2c#i\	.	.
=24	=24	=24	=24
0D	1d	2f\	0r
.	.	1d	.
.	[1A	.	.
.	.	2f\	.
=25	=25	=25	=25
1AA	1A]	1e	1cc
1r	1B	1d	2.dd\
.	.	.	4cc\
=26	=26	=26	=26
1r	2c\	0e	2a/
.	1A	.	2cc\
1E	.	.	1b
.	2G#i/	.	.
=27	=27	=27	=27
[0F	0A	1.c	1a
.	.	.	2r
.	.	4B\	[2cc\
.	.	4A/	.
=28	=28	=28	=28
0F]	2r	0A	4cc\]
.	.	.	4a/
.	1c	.	1a
.	4A/	.	2cc\
.	4B\	.	.
=29	=29	=29	=29
1F	2c\	2r	2a/
.	2A/	2f\	2cc\
[1G	2r	2d\	2b\
.	2c\	[2g\	2g/
=30	=30	=30	=30
0G_	2B\	2g\]	1.dd
.	2G/	2g\	.
.	1d	1g	.
.	.	.	2cc\
=31	=31	=31	=31
1G]	1G	2r	1b
.	.	2G/	.
2F\	1r	2A/	2a/
2E\	.	[2c\	2g/
=32	=32	=32	=32
1F	1d	2c\]	1a
.	.	4B\	.
.	.	4A/	.
[1E	2c\	[1e	2r
.	2B\	.	[2g/
=33	=33	=33	=33
1E]	1c	1e]	2g/]
.	.	.	2e/
1E	[1B	1e	2.g/
.	.	.	4a/
=34	=34	=34	=34
1G	1B]	2d\	2b\
.	.	2e\	2g/
2F\	1r	2d\	2a/
2E\	.	2e\	2g/
=35	=35	=35	=35
1F	1d	1A	2a/
.	.	.	2f/
[1E	2c\	[1e	2g/
.	2B\	.	[2b\
=36	=36	=36	=36
1E]	1c	1e]	2b\]
.	.	.	1a
1E	1B	2r	.
.	.	2E/	2g#i/
=37	=37	=37	=37
1r	1A	2F/	1a
.	.	2.A/	.
2r	1r	.	1r
.	.	4G/	.
[2E\	.	2E/	.
=38	=38	=38	=38
2E\]	2.A/	1F	0r
2D\	.	.	.
.	4B\	.	.
1E	2c\	2E/	.
.	[2B\	2G/	.
=39	=39	=39	=39
2D\	2B\]	2F/	0r
1E	2B\	2G/	.
.	2c\	1E	.
2E\	[2B\	.	.
=40	=40	=40	=40
2D\	2B\]	0r	0r
1E	2B\	.	.
.	2c\	.	.
2D\	2d\	.	.
=41	=41	=41	=41
2E\	2B\	0r	0r
2C/	1c	.	.
2E\	.	.	.
[2F\	[2A/	.	.
=42	=42	=42	=42
2F\]	2A/]	0r	1r
1E	2G/	.	.
.	1F	.	2.a/
2D\	.	.	.
.	.	.	4b\
=43	=43	=43	=43
0E	1E	1r	2cc\
.	.	.	1b
.	1r	[1e	.
.	.	.	2b\
=44	=44	=44	=44
0r	0r	1e]	2cc\
.	.	.	1b
.	.	2d\	.
.	.	[2e\	2b\
=45	=45	=45	=45
0r	0r	2e\]	2cc\
.	.	2d\	2dd\
.	.	2e\	2g/
.	.	[2f\	[2a/
=46	=46	=46	=46
0r	0r	2f\]	2a/]
.	.	1e	2g/
.	.	.	2f/
.	.	2d\	4e/
.	.	.	4d/
=47	=47	=47	=47
0AA	1r	0e	0c
.	[1A	.	.
=48	=48	=48	=48
1AA	1A]	0c	2r
.	.	.	2.e/
1C	2G/	.	.
.	.	.	4d/
.	[2A/	.	2e/
=49	=49	=49	=49
2D\	2A/]	0r	2f/
2E\	2G/	.	2g/
2F\	2A/	.	2c/
[2D\	[2B\	.	2d/
=50	=50	=50	=50
2D\]	4B\]	0r	2f/
.	4A/	.	.
2C/	1A	.	2e/
1BB	.	.	2.d/
.	2G#i/	.	.
.	.	.	4c/
=51	=51	=51	=51
1AA	1A	1r	1c
[1C	[1G	2r	2r
.	.	[2c\	[2e/
=52	=52	=52	=52
1C]	2.G/]	4c\]	4e/]
.	.	4d\	4f/
.	.	2e\	2g/
.	4A/	.	.
[1D	2B\	2d\	2f/
.	[2A/	[2f\	[2a/
=53	=53	=53	=53
2D\]	4A/]	2f\]	2a/]
.	4B\	.	.
1.E	2c\	2.e\	2.g/
.	2.B\	.	.
.	.	4f\	4a/
.	.	2g\	2b\
.	4c\	.	.
=54	=54	=54	=54
1.F	2d\	2f\	2a/
.	2.c\	1a	1cc
.	4d\	.	.
[2G\	2e\	[2g\	[2b\
=55	=55	=55	=55
1G]	2d\	2g\]	4b\]
.	.	.	4cc\
.	1G	2.g\	2dd\
2E\	.	.	2g/
.	.	4c\	.
[2F\	[2c\	[2f\	[2a/
=56	=56	=56	=56
2F\]	4c\]	4f\]	2a/]
.	4B\	4e\	.
2G\	2G/	4d\	1g
.	.	4c\	.
1D	1A	[1dl	.
.	.	.	2f#i/
=57	=57	=57	=57
0GGl	0Gl	0d]	0gl
!!LO:LB:i:g=z
=58||	=58||	=58||	=58||
*>C	*>C	*>C	*>C
*clefF4	*clefGv2	*clefGv2	*clefG2
*k[]	*k[]	*k[]	*k[]
*M2/1	*M2/1	*M2/1	*M2/1
*met(C2)	*met(C2)	*met(C2)	*met(C2)
!!section: Kyrie II
!!!OMD: Kyrie II
0r	[0G	1d	0r
.	.	1e	.
=59.	=59.	=59.	=59.
1r	1G]	2d\	0r
.	.	1d	.
1G	1B	.	.
.	.	4c\	.
.	.	4B\	.
=60	=60	=60	=60
1A	1c	1A	0r
2G\	[1d	1B	.
[2G\	.	.	.
=61.	=61.	=61.	=61.
2G\]	1d]	2.G/	0r
4F\	.	.	.
4E\	.	4A/	.
1D	1d	1B	.
=62	=62	=62	=62
1C	1e	1c	0g
1r	2d\	1B	.
.	[2d\	.	.
=63.	=63.	=63.	=63.
0r	2d\]	1G	1b
.	4c\	.	.
.	4B\	.	.
.	1A	1r	1cc
=64	=64	=64	=64
0r	0G	1r	0dd
.	.	1g	.
=65.	=65.	=65.	=65.
0r	0r	1a	1cc
.	.	2g\	2b\
.	.	[2g\	4g/
.	.	.	4a/
=66	=66	=66	=66
1r	0r	2g\]	4b\
.	.	.	4g/
.	.	4f\	1cc
.	.	4e\	.
1G	.	1d	.
.	.	.	2b\
=67.	=67.	=67.	=67.
1A	1r	1c	1cc
2G\	2r	1r	2b\
[2G\	4G/	.	[2g/
.	4A/	.	.
=68	=68	=68	=68
2G\]	4B\	0r	2g/]
.	4G/	.	.
4F\	1c	.	1a
4E\	.	.	.
1D	.	.	.
.	2B\	.	4g/
.	.	.	4f/
=69.	=69.	=69.	=69.
[0C	[0c	2r	0e
.	.	2.g\	.
.	.	8f\L	.
.	.	8g\J	.
.	.	2a\	.
=70	=70	=70	=70
0C]	0c]	2g\	2r
.	.	2.e\	2.g/
.	.	8d\L	8f/L
.	.	8e\J	8g/J
.	.	2f\	2a/
=71.	=71.	=71.	=71.
1C	1r	2e\	2g/
.	.	2.c\	2.e/
2.AA/	[1c	.	.
.	.	4B\	8d/L
.	.	.	8e/J
.	.	2A/	2f/
4BB/	.	.	.
=72	=72	=72	=72
[0C	1c]	0G	2e/
.	.	.	1c
.	1c	.	.
.	.	.	2g/
=73.	=73.	=73.	=73.
0C]	0c	1r	2a/
.	.	.	1cc
.	.	1g	.
.	.	.	4b\
.	.	.	4a/
=74	=74	=74	=74
1G	[0d	2g\	2b\
.	.	2G/	2g/
2F\	.	2A/	2.dd\
[2G\	.	2B\	.
.	.	.	4cc\
=75.	=75.	=75.	=75.
2G\]	0d_	2G/	2b\
2F\	.	2A/	2.a/
1G	.	4B\	.
.	.	4c\	4g/
.	.	[2d\	[2g/
=76	=76	=76	=76
1D	0d]	4d\]	2g/]
.	.	4c\	.
.	.	4B\	2f#i/
.	.	4A/	.
1G	.	1B	[1g
=77.	=77.	=77.	=77.
0C	0e	0c	0g_
=78	=78	=78	=78
0G	1e	0B	0g_
.	[1d	.	.
=79.	=79.	=79.	=79.
1r	1d]	1B	1g]
[1G	1B	1G	1g
=80	=80	=80	=80
1G]	[0d	1B	1g
[1D	.	1A	[1f
=81.	=81.	=81.	=81.
1D]	0d]	2.F/	2f/]
.	.	.	4e/
.	.	4G/	4d/
2.D\	.	[1A	2.f/
4E\	.	.	4g/
=82	=82	=82	=82
2F\	1d	0A_	2a/
1F	.	.	1a
.	[1c	.	.
4E\	.	.	4g/
4D\	.	.	4f/
=83.	=83.	=83.	=83.
2.C/	1c]	1A]	2.e/
4D\	.	.	4f/
[1E	1c	[1G	[1g
=84	=84	=84	=84
1E]	0B	1G]	1g]
1G	.	[1d	1g
=85.	=85.	=85.	=85.
1D	[0A	1d]	2f/
.	.	.	2.a/
2.F\	.	2.c\	.
.	.	.	4b\
.	.	.	[2cc\
4E\	.	4d\	.
=86	=86	=86	=86
1C	0A]	1e	4cc\]
.	.	.	4b\
.	.	.	4a/
.	.	.	4g/
1D	.	1d	2.f#i/
.	.	.	4e/
=87.	=87.	=87.	=87.
[0GG	[0G	2B\	0g
.	.	2c\	.
.	.	1d	.
=88	=88	=88	=88
*M3/1	*M3/1	*M3/1	*M3/1
*met(3)	*met(3)	*met(3)	*met(3)
!	!	!	!LO:N:vis=0
*met()	*met()	*	*
!LO:N:vis=0	!LO:N:vis=0	!	!
0.GG]	0.G]	0d	0.r
.	.	1d	.
=89.	=89.	=89.	=89.
!	!LO:N:vis=0	!	!
*M3/1	*	*	*M3/1
*met(3)	*met(3)	*met(3)	*met(3)
0D	0.r	1.f	0.r
.	.	2e\	.
1D	.	1d	.
=90	=90	=90	=90
!	!LO:N:vis=0	!	!
1.F	0.r	1c	0a
.	.	1d	.
2E\	.	.	.
1D	.	1f	1a
=91.	=91.	=91.	=91.
*	*M3/1	*	*
*met(3)	*met(3)	*met(3)	*met(3)
1C	0A	0e	1.cc
2AA/	.	.	.
2BB/	.	.	2b\
2C/	1A	1r	1a
2D\	.	.	.
=92	=92	=92	=92
1E	1.c	0e	1g
0AA	.	.	1.a
.	2B\	.	.
.	1A	1e	.
.	.	.	2g/
=93.	=93.	=93.	=93.
1.C	[0.G	1c	1e
.	.	1.e	1.g
2BB/	.	.	.
[1GG	.	.	.
.	.	2d\	2f/
=94	=94	=94	=94
1GG]	1G]	0B	[0.d
1.GG	0G	.	.
.	.	1B	.
2AA/	.	.	.
=95.	=95.	=95.	=95.
1BB	1.G	0d	1d]
0GG	.	.	1.g
.	2A/	.	.
.	1B	1d	.
.	.	.	2a/
=96	=96	=96	=96
0GG	1.G	1.d	1b
.	.	.	1.g
.	2A/	2c\	.
1r	2B\	2B\	.
.	2c\	2A/	2a/
=97.	=97.	=97.	=97.
0GG	1.d	1.G	2b\
.	.	.	2cc\
.	.	.	1.dd
.	2c\	2A/	.
1GG	2B\	2B\	.
.	2A/	2c\	2cc\
=98	=98	=98	=98
1.GG	0.G	0d	2b\
.	.	.	2a/
.	.	.	1.g
2AA/	.	.	.
2BB/	.	1r	.
2C/	.	.	2f/
=99.	=99.	=99.	=99.
1D	0.r	1d	1f
1F	.	2c\	1a
.	.	2A/	.
1E	.	2B\	1g
.	.	2c\	.
=100	=100	=100	=100
1D	1r	0.d	1f
1F	1A	.	1a
1G	1G	.	1b
=101.	=101.	=101.	=101.
1A	1F	1r	1cc
1F	1A	1r	1.a
1G	1B	1d	.
.	.	.	2g/
=102	=102	=102	=102
1C	1c	1e	0g
0D	0A	0d	.
.	.	.	1f#i
=103.	=103.	=103.	=103.
0GG	1.G	1B	1g
.	.	0d	1b
.	2E/	.	.
1D	1F	.	2a/
.	.	.	2g/
=104	=104	=104	=104
1E	1G	1c	0g
0D	0A	0d	.
.	.	.	1f#i
=105.	=105.	=105.	=105.
*M2/1	*M2/1	*M3/3%2	*M2/1
*met()	*met()	*met()	*met(C|)
!!primary-mensuration: met(C|)
3%2GG	[3%4.Gl	3%2B	[0g
3%2C	.	3%2e	.
3%2BB	.	3d\	.
.	.	3c\	.
=106	=106	=106	=106
3%2C	3%4.G_	3%4c	0g]
3%4GG	.	.	.
.	.	3%2B	.
=107.	=107.	=107.	=107.
*M2/1	*M2/1	*M2/1	*
*met(C|)	*met()	*met(C|)	*
[0C	0G_	[0c	0g
=108	=108	=108	=108
0C]	0G_	0c]	1e
.	.	.	1e
=109.	=109.	=109.	=109.
0GGl	0G]	0Bl	0dl
!!LO:LB:i:g=z
=110||	=110||	=110||	=110||
*>D	*>D	*>D	*>D
*clefF4	*clefGv2	*clefGv2	*clefG2
*k[]	*k[]	*k[]	*k[]
*M3/1	*M2/1	*M3/1	*M3/1
*met(O|)	*met(O|)	*met(O|)	*met(O|)
!!section: Kyrie III
!!!OMD: Kyrie III
0E	0.B	0e	0g
[1E	.	2e\	1g
.	.	[2e\	.
=111	=111	=111	=111
2E\]	0.c	4e\]	2g/
.	.	4d\	.
1F	.	4c\	1a
.	.	4B\	.
.	.	1A	.
2E\	.	.	2a/
1C	.	[1e	1g
=112	=112	=112	=112
2.E\	0B	1e]	1g
4F\	.	.	.
2G\	.	1d	1dd
1G	.	.	.
.	1A	2e\	1cc
2F\	.	2f\	.
=113	=113	=113	=113
0G	1G	2d\	0.b
.	.	2e\	.
.	1r	2d\	.
.	.	1B	.
1E	1G	.	.
.	.	[2e\	.
=114	=114	=114	=114
2E\	2G/	4e\]	0.cc
.	.	4d\	.
1F	1A	4c\	.
.	.	4B\	.
.	.	4A/	.
.	.	4B\	.
2F\	2A/	4c\	.
.	.	4d\	.
2E\	[1G	[1e	.
2C/	.	.	.
=115	=115	=115	=115
2.E\	1G]	2e\]	0b
.	.	4d\	.
4F\	.	4c\	.
2G\	1d	1B	.
1G	.	.	.
.	1c	2r	1a
2F\	.	2f\	.
=116	=116	=116	=116
2G\	2B\	2e\	2g/
2F\	2.c\	2f\	2.a/
1G	.	2e\	.
.	4B\	.	4g/
.	2B\	4d\	1g
.	.	4c\	.
1D	1A	[1d	.
.	.	.	2f#i/
=117	=117	=117	=117
2r	0G	1d]	0.g
2.GG/	.	.	.
.	.	1d	.
4AA/	.	.	.
2BB/	.	.	.
1C	1r	2r	.
.	.	[2G/	.
=118	=118	=118	=118
2BB/	[0.G	4G/]	0.r
.	.	4A/	.
2.E\	.	2B\	.
.	.	1c	.
4D\	.	.	.
2C/	.	.	.
2BB/	.	2d\	.
[2C/	.	2e\	.
=119	=119	=119	=119
4C/]	0G]	2c\	0.r
4BB/	.	.	.
2GG/	.	4d\	.
.	.	4c\	.
2BB/	.	4B\	.
.	.	4A/	.
2C/	.	1G	.
1AA	1A	.	.
.	.	2F#i/	.
=120	=120	=120	=120
0GG	1.B	0G	0g
.	4A/	.	.
.	4G/	.	.
1r	1d	1F	1a
=121	=121	=121	=121
0.G	1d	1G	1.b
.	2d\	1r	.
.	2c\	.	4a/
.	.	.	4g/
.	1B	1d	1dd
=122	=122	=122	=122
0F	0A	0f	2dd\
.	.	.	2.cc\
.	.	.	4b\
.	.	.	2a/
2G\	1r	1d	2g/
2D\	.	.	2f/
=123	=123	=123	=123
2G\	0.d	2r	2g/
2D\	.	2A/	2f/
2G\	.	2B\	2g/
2F\	.	2A/	2a/
2G\	.	2G/	2b\
2D\	.	[2A/	[2a/
=124	=124	=124	=124
2F\	0c	2A/]	4a/]
.	.	.	4g/
2G\	.	2B\	1g
1A	.	2.c\	.
.	.	.	2f#i/
.	.	4d\	.
[1G	[1B	2e\	1g
.	.	[2d\	.
=125	=125	=125	=125
1G]	1B]	2d\]	0.r
.	.	2e\	.
0F	0A	4f\	.
.	.	4e\	.
.	.	4d\	.
.	.	4c\	.
.	.	1d	.
=126	=126	=126	=126
1E	0G	0e	0g
2r	.	.	.
2E\	.	.	.
2F\	1r	2r	2a/
[2G\	.	2e\	2b\
=127	=127	=127	=127
2G\]	1r	2d\	1g
2E\	.	2e\	.
2F\	2r	2c\	1cc
1G	1d	1g	.
.	.	.	2b\
2A\	2c\	2f\	[2cc\
=128	=128	=128	=128
1G	1d	1g	2cc\]
.	.	.	2b\
2A\	2c\	1e	1a
1E	1B	.	.
.	.	2e\	2g/
2F\	2A/	2d\	2a/
=129	=129	=129	=129
2E\	2B\	1e	1g
2C/	1A	.	.
2D\	.	2r	2f/
2BB/	1G	2d\	2g/
1AA	.	2.c\	1a
.	2F/	.	.
.	.	4B\	.
=130	=130	=130	=130
1GG	1G	1B	2b\
.	.	.	1g
2r	1c	1G	.
1G	.	.	1dd
.	2B\	1r	.
2A\	[2c\	.	2cc\
=131	=131	=131	=131
1G	2c\]	1g	1dd
.	2B\	.	.
2A\	1A	2.e\	2cc\
1E	.	.	1b
.	.	4f\	.
.	2G/	2g\	.
2F\	2A/	2f\	2a/
=132	=132	=132	=132
2E\	1G	2g\	2b\
2C/	.	2e\	1a
2D\	2F/	0d	.
2GG/	2G/	.	1g
1D	1A	.	.
.	.	.	2f#i/
=133	=133	=133	=133
0.GGl	0.Gl	0.dl	0.gl
==	==	==	==
*-	*-	*-	*-
!!!RDF**kern: l=long note in original notation
!!!RDF**kern: i=editorial accidental
!!!ENC:	Jesse Rodin; Victoria Chang 2012/01/29
!!!END:	2012/01/29/
!!!EED:	Jesse Rodin
!!!EEV:	2012/03/20/
!!attribution-level: 3 (other)
!!!ONB:	Translated from MusicXML and edited on 2012/03/20/ by Craig Sapp
!!muse2ps: C^@{COM}\n@{SCT}^i2I150v95,95,95,150Q16
